!!!OTL: D' Baarnertracht Vom Himmel aba chunt a Staern,
!!!ARE: Europa, Mitteleuropa, Schweiz, Bern
!!!SCT: D0103
!!!YEM: Copyright 1995, estate of Helmut Schaffrath.
**kern
*ICvox
*Ivox
!! Mixed meters:  4/4; 3/4
*M4/4
*k[b-]
*F:
{8a
8g
=1
8f
8f
8f
8c
4f
4g
=2
*M3/4
2a
4r}
=3
{8a
8g
=4
*M4/4
8f
8f
8f
8c
4f
4g
=5
*M3/4
2a
4r}
=6
{8f
8g
=7
*M4/4
8a
8a
4.cc
8a
8b-
8a
=8
*M3/4
2g
4c}
=9
{8f
8g
=10
*M4/4
8a
8a
4.cc
8a
8b-
8a
=11
*M3/4
2g
4c}
=12
{4a
=13
*M4/4
4.cc
8a
12.dd
24cc
12b-
8a
8g
=14
*M3/4
2a
4r}
=15
{4a
=16
*M4/4
4f
4g
4a
4bn
=17
*M3/4
2cc
4c}
=18
{8f
8a
=19
4.cc
8dd
8cc
8b-
=20
4.a
8g
4f
=21
2g
4a
=22
2f}
{8f
8a
=23
4.cc
8dd
8cc
8b-
=24
4.a
8g
4f
=25
2g
4a
=26
2f
4r}
==
!!!AGN: Jodel - Lied, Heimat - Lied, Liebes - Lied
!! Siebentonskala (Ionisch mit Auslassung und Modulation in
!!    die Dominanttonart) ; Inzipit = Variante zum Lied
!!!ONB: ESAC (Essen Associative Code) Database: DVA
!!!AMT: irregular
!!!AIN: vox
!!!EED: Helmut Schaffrath
!!!EEV: 1.0
*-
